openframe-frontend-core/src/components/icons-v2/brand-logos/paypal.svg

<svg width="24" height="24" viewBox="0 0 24 24" fill="none" xmlns="http://www.w3.org/2000/svg">
<path d="M17.5766 6.90991C17.8223 6.38171 18.4266 6.1339 18.9653 6.32105L19.0722 6.36499L19.4501 6.55982C21.1748 7.53994 22.2782 9.46121 22.1088 11.5667L22.0532 12.0208C21.5622 14.9661 19.0142 17.1241 16.0283 17.1243H14.291C14.1078 17.1243 13.9507 17.2572 13.9204 17.4377L13.2685 21.3489C13.0977 22.3735 12.2111 23.1243 11.1723 23.1243H8.68062C7.3675 23.1243 6.36855 21.9454 6.58443 20.6502V20.6458L6.87154 18.9744C6.9765 18.3622 7.55712 17.9512 8.16939 18.0559C8.78168 18.1606 9.19381 18.7415 9.08931 19.3538L8.82857 20.8743H11.0668L11.7011 17.0686L11.7509 16.8357C12.0496 15.6906 13.0878 14.8743 14.291 14.8743H16.0283C17.9143 14.8741 19.5238 13.5106 19.8339 11.6501L19.8662 11.3909C19.9632 10.1865 19.3344 9.08154 18.3413 8.51685L18.123 8.40406L18.0205 8.35132C17.5305 8.05982 17.3311 7.43799 17.5766 6.90991Z" fill="#888888"/>
<path d="M13.8014 0.875C17.4798 0.875 20.2787 4.1783 19.6739 7.80664C19.0661 11.4526 15.9112 14.1243 12.2149 14.1245H11.0694C10.4295 14.1245 9.88264 14.5876 9.77744 15.2188L9.08897 19.3496C8.91808 20.3738 8.03261 21.1247 6.99424 21.125H4.0001C2.68706 21.125 1.68819 19.946 1.90391 18.6509L4.43076 3.48682L4.49082 3.2085C4.84663 1.84565 6.08217 0.875 7.51426 0.875H13.8014ZM7.51426 3.125C7.14005 3.125 6.81389 3.36185 6.69102 3.70361L6.65147 3.85596L4.14805 18.875H6.88731L7.55821 14.8496C7.84422 13.1335 9.32966 11.8745 11.0694 11.8745H12.2149C14.8114 11.8743 17.0278 9.99721 17.4547 7.43604C17.8305 5.17931 16.0892 3.125 13.8014 3.125H7.51426Z" fill="#888888"/>
</svg>

<svg xmlns="http://www.w3.org/2000/svg" width="24" height="24" fill="none" viewBox="0 0 24 24">
  <path fill="#888" d="M17.577 6.91c.245-.528.85-.776 1.388-.589l.107.044.378.195a5.28 5.28 0 0 1 2.659 5.007l-.056.454a6.108 6.108 0 0 1-6.025 5.103h-1.737a.376.376 0 0 0-.37.314l-.652 3.91a2.125 2.125 0 0 1-2.097 1.776H8.681a2.125 2.125 0 0 1-2.097-2.474v-.004l.288-1.672a1.124 1.124 0 1 1 2.217.38l-.26 1.52h2.238l.634-3.805.05-.233a2.626 2.626 0 0 1 2.54-1.962h1.737a3.858 3.858 0 0 0 3.806-3.224l.032-.26a3.03 3.03 0 0 0-1.525-2.873l-.218-.113-.103-.053a1.126 1.126 0 0 1-.443-1.441Z"/>
  <path fill="#888" d="M13.801.875c3.679 0 6.478 3.303 5.873 6.932a7.562 7.562 0 0 1-7.46 6.317H11.07a1.31 1.31 0 0 0-1.292 1.095l-.688 4.13a2.124 2.124 0 0 1-2.095 1.776H4a2.125 2.125 0 0 1-2.096-2.474L4.43 3.487l.06-.279A3.126 3.126 0 0 1 7.514.875h6.287Zm-6.287 2.25c-.374 0-.7.237-.823.579l-.04.152-2.503 15.019h2.74l.67-4.025a3.56 3.56 0 0 1 3.511-2.976h1.146a5.312 5.312 0 0 0 5.24-4.438A3.703 3.703 0 0 0 13.8 3.125H7.514Z"/>
</svg>
